img/sponsors/codetribe.svg

<svg viewBox="0 0 1200 282.81" xmlns="http://www.w3.org/2000/svg" xmlns:xlink="http://www.w3.org/1999/xlink"><linearGradient id="a" gradientTransform="matrix(0 -1 1 0 455.6 743.47)" gradientUnits="userSpaceOnUse" x1="418.38" x2="586.66" y1="-252.23" y2="-420.51"><stop offset="0" stop-color="#7866f7"/><stop offset="1" stop-color="#5da7fb"/></linearGradient><linearGradient id="b" x1="491.97" x2="660.25" xlink:href="#a" y1="-178.63" y2="-346.92"/><linearGradient id="c" x1="438.1" x2="606.38" xlink:href="#a" y1="-232.51" y2="-400.79"/><linearGradient id="d" x1="302" x2="237.21" xlink:href="#a" y1="74.58" y2="9.79"/><path d="m268.82 256.14a26.66 26.66 0 0 1 -26.66 26.66h-215.49a26.66 26.66 0 0 1 0-53.32h215.5a26.66 26.66 0 0 1 26.65 26.66z" fill="url(#a)"/><path d="m268.83 256.12a26.66 26.66 0 0 1 -49.75 13.36l-107.75-186.63a26.66 26.66 0 0 1 46.17-26.66l107.75 186.62a26.55 26.55 0 0 1 3.58 13.31z" fill="url(#b)"/><path d="m161.08 69.54a26.53 26.53 0 0 1 -3.58 13.3l-107.74 186.63a26.66 26.66 0 0 1 -46.18-26.66l107.75-186.62a26.66 26.66 0 0 1 49.75 13.36z" fill="url(#c)"/><path d="m306.94 32.81h-20.26l10.13-17.81a10 10 0 0 0 -3.59-13.55 9.8 9.8 0 0 0 -13.41 3.55l-10.13 17.47-10.13-17.55a9.82 9.82 0 0 0 -13.41-3.6 10.14 10.14 0 0 0 -3.59 13.68l10.13 17.81h-20.26a10 10 0 0 0 0 20h20.25l-10.12 17.08a9.55 9.55 0 0 0 3.59 13.18 9.85 9.85 0 0 0 13.41-3.71l10.13-17.6 10.13 17.51a9.81 9.81 0 0 0 13.41 3.58 9.3 9.3 0 0 0 3.59-13l-10.13-17.04h20.25a10 10 0 0 0 0-20z" fill="url(#d)"/><g fill="#3e4de1"><path d="m418.53 186.48c-14.33 0-24.33 10.66-24.33 26.33 0 16 10 26.66 24.33 26.66 7.65 0 14.2-1.92 19.25-5.75a8.87 8.87 0 0 1 11 .4 9 9 0 0 1 .09 13.86c-7.85 6.5-18.52 10.15-31.48 10.15-26.66 0-45-18.33-45-45.16 0-27.16 18.5-45.49 45.33-45.49 12 0 22.18 3.23 29.92 9a9 9 0 0 1 .67 13.69l-.55.52a9.19 9.19 0 0 1 -11.48.78 31.57 31.57 0 0 0 -17.75-4.99z"/><path d="m561.33 212.65c0 27.16-19 45.49-46.83 45.49-28.16 0-47.16-18.33-47.16-45.49 0-27 19-45.16 47.16-45.16 27.84 0 46.83 18.16 46.83 45.16zm-72.16.34c0 16 10.33 27 25.33 27 14.66 0 25-11 25-27s-10.33-27-25-27c-14.99.01-25.32 11.01-25.32 27.01z"/><path d="m670.31 144.49v102.78a10 10 0 0 1 -10 10h-1.58a10 10 0 0 1 -10-10 1.4 1.4 0 0 0 -2.49-.89c-6.4 7.69-15.8 11.93-27.5 11.93-25.5 0-42.49-18.66-42.49-45.83 0-27 17-45.16 42-45.16 12 0 21.48 4.26 28 12.11a1.4 1.4 0 0 0 2.49-.89v-34a10.83 10.83 0 0 1 10.83-10.83 10.83 10.83 0 0 1 10.74 10.78zm-21.67 68.51c0-16-10.33-27.16-25.33-27.16-14.83 0-25.16 11.33-25.33 27.16.17 16 10.33 27.16 25.33 27.16s25.33-11.16 25.33-27.16z"/><path d="m773.71 220.32h-57.42c2.83 12.66 12.5 20.33 25.5 20.33a33.4 33.4 0 0 0 18.46-5.43 8.63 8.63 0 0 1 11 1.14 8.51 8.51 0 0 1 -1 12.8c-8.14 5.75-18.46 9-30.29 9-27.66 0-45.82-18.33-45.82-45.16 0-27.16 18.66-45.49 45.33-45.49 28.34 0 42.09 16.77 42.85 43.9a8.64 8.64 0 0 1 -8.61 8.91zm-11.26-14.5c-.5-13.16-9.33-21.5-22.83-21.5-12.83 0-21.83 8.33-23.83 21.5z"/><path d="m855.13 244.83a8.6 8.6 0 0 1 -5 10.52 41.46 41.46 0 0 1 -15.21 3c-14.5 0-26.16-8.33-26.16-26.66v-42.4a1.63 1.63 0 0 0 -1.63-1.63h-3a7.91 7.91 0 0 1 -7.91-7.83 7.91 7.91 0 0 1 7.91-8h3a1.63 1.63 0 0 0 1.63-1.63v-12.27a10.6 10.6 0 0 1 10.6-10.6h.31a10.59 10.59 0 0 1 10.59 10.59v12.28a1.63 1.63 0 0 0 1.63 1.63h15.95a7.91 7.91 0 0 1 7.91 7.91 7.91 7.91 0 0 1 -7.91 7.91h-15.94a1.63 1.63 0 0 0 -1.63 1.63v38.53c0 8.5 3.5 11.33 9.33 11.33a19.69 19.69 0 0 0 4.94-.69 8.62 8.62 0 0 1 10.46 5.82z"/><path d="m930.41 178.93a9.7 9.7 0 0 1 -8.12 9.69c-14 2-22.21 12-22.21 25.7v32.16a10.83 10.83 0 0 1 -10.83 10.83 10.83 10.83 0 0 1 -10.83-10.83v-67.48a10.83 10.83 0 0 1 10.83-10.83 10.83 10.83 0 0 1 10.83 10.83v6.33a31.48 31.48 0 0 1 17.28-15.71 9.81 9.81 0 0 1 13.05 9.31z"/><path d="m972.23 142.66c0 7-4.83 12-11.66 12s-11.67-5-11.67-12 4.83-12 11.67-12 11.66 5 11.66 12zm-.83 36.34v67.49a10.83 10.83 0 0 1 -10.83 10.83 10.83 10.83 0 0 1 -10.83-10.83v-67.49a10.83 10.83 0 0 1 10.83-10.83 10.83 10.83 0 0 1 10.83 10.83z"/><path d="m1097 213.15c0 26.83-16.5 45-41.83 45-13.5 0-23.83-5.5-30.33-15.33v3.67a10.83 10.83 0 0 1 -10.83 10.83 10.83 10.83 0 0 1 -10.83-10.83v-102a10.83 10.83 0 0 1 10.83-10.83 10.83 10.83 0 0 1 10.83 10.83v38.32c6.33-9.83 16.66-15.33 30-15.33 25.16.01 42.16 18.34 42.16 45.67zm-22-.67c0-15.66-10.33-26.83-25-26.83-14.83 0-25.16 11.17-25.16 26.83 0 16 10.33 27 25.16 27 14.71 0 25-11.17 25-27z"/><path d="m1190 220.32h-56c2.83 12.66 12.5 20.33 25.5 20.33a33.4 33.4 0 0 0 18.46-5.43 8.63 8.63 0 0 1 11 1.14 8.51 8.51 0 0 1 -1 12.8c-8.14 5.75-18.46 9-30.29 9-27.66 0-45.83-18.33-45.83-45.16 0-27.16 18.66-45.49 45.33-45.49 27.82 0 41.58 16.17 42.8 42.43a10 10 0 0 1 -9.97 10.38zm-9.78-14.5c-.5-13.16-9.33-21.5-22.83-21.5-12.83 0-21.83 8.33-23.83 21.5z"/></g></svg>

<svg xmlns="http://www.w3.org/2000/svg" xmlns:xlink="http://www.w3.org/1999/xlink" viewBox="0 0 1200 282.81"><defs><style>.cls-1{isolation:isolate;}.cls-2{mix-blend-mode:multiply;}.cls-3{fill:url(#linear-gradient);}.cls-4{fill:url(#linear-gradient-2);}.cls-5{fill:url(#linear-gradient-3);}.cls-6{fill:url(#linear-gradient-4);}.cls-7{fill:#3e4de1;}</style><linearGradient id="linear-gradient" x1="418.38" y1="-252.23" x2="586.66" y2="-420.51" gradientTransform="translate(455.6 743.47) rotate(-90)" gradientUnits="userSpaceOnUse"><stop offset="0" stop-color="#7866f7"/><stop offset="1" stop-color="#5da7fb"/></linearGradient><linearGradient id="linear-gradient-2" x1="491.97" y1="-178.63" x2="660.25" y2="-346.92" xlink:href="#linear-gradient"/><linearGradient id="linear-gradient-3" x1="438.1" y1="-232.51" x2="606.38" y2="-400.79" xlink:href="#linear-gradient"/><linearGradient id="linear-gradient-4" x1="302" y1="74.58" x2="237.21" y2="9.79" gradientTransform="matrix(1, 0, 0, 1, 0, 0)" xlink:href="#linear-gradient"/></defs><title>Asset 1</title><g class="cls-1"><g id="Layer_2" data-name="Layer 2"><g id="Layer_1-2" data-name="Layer 1"><g id="_Group_" data-name="&lt;Group&gt;" class="cls-2"><path id="_Path_" data-name="&lt;Path&gt;" class="cls-3" d="M268.82,256.14a26.66,26.66,0,0,1-26.66,26.66H26.67a26.66,26.66,0,0,1,0-53.32h215.5A26.66,26.66,0,0,1,268.82,256.14Z"/></g><g id="_Group_2" data-name="&lt;Group&gt;" class="cls-2"><path id="_Path_2" data-name="&lt;Path&gt;" class="cls-4" d="M268.83,256.12a26.66,26.66,0,0,1-49.75,13.36L111.33,82.85A26.66,26.66,0,0,1,157.5,56.19L265.25,242.81A26.55,26.55,0,0,1,268.83,256.12Z"/></g><g id="_Group_3" data-name="&lt;Group&gt;" class="cls-2"><path id="_Path_3" data-name="&lt;Path&gt;" class="cls-5" d="M161.08,69.54a26.53,26.53,0,0,1-3.58,13.3L49.76,269.47A26.66,26.66,0,0,1,3.58,242.81L111.33,56.19a26.66,26.66,0,0,1,49.75,13.36Z"/></g><path class="cls-6" d="M306.94,32.81H286.68L296.81,15a10,10,0,0,0-3.59-13.55A9.8,9.8,0,0,0,279.81,5L269.68,22.47,259.55,4.92a9.82,9.82,0,0,0-13.41-3.6A10.14,10.14,0,0,0,242.55,15l10.13,17.81H232.42a10,10,0,0,0,0,20h20.25L242.55,69.89a9.55,9.55,0,0,0,3.59,13.18,9.85,9.85,0,0,0,13.41-3.71l10.13-17.6,10.13,17.51a9.81,9.81,0,0,0,13.41,3.58,9.3,9.3,0,0,0,3.59-13L286.68,52.81h20.25a10,10,0,0,0,0-20Z"/><path class="cls-7" d="M418.53,186.48c-14.33,0-24.33,10.66-24.33,26.33,0,16,10,26.66,24.33,26.66,7.65,0,14.2-1.92,19.25-5.75a8.87,8.87,0,0,1,11,.4h0a9,9,0,0,1,.09,13.86c-7.85,6.5-18.52,10.15-31.48,10.15-26.66,0-45-18.33-45-45.16,0-27.16,18.5-45.49,45.33-45.49,12,0,22.18,3.23,29.92,9a9,9,0,0,1,.67,13.69l-.55.52a9.19,9.19,0,0,1-11.48.78A31.57,31.57,0,0,0,418.53,186.48Z"/><path class="cls-7" d="M561.33,212.65c0,27.16-19,45.49-46.83,45.49-28.16,0-47.16-18.33-47.16-45.49,0-27,19-45.16,47.16-45.16C542.34,167.49,561.33,185.65,561.33,212.65Zm-72.16.34c0,16,10.33,27,25.33,27,14.66,0,25-11,25-27s-10.33-27-25-27C499.51,186,489.18,197,489.18,213Z"/><path class="cls-7" d="M670.31,144.49V247.27a10,10,0,0,1-10,10h-1.58a10,10,0,0,1-10-10h0a1.4,1.4,0,0,0-2.49-.89c-6.4,7.69-15.8,11.93-27.5,11.93-25.5,0-42.49-18.66-42.49-45.83,0-27,17-45.16,42-45.16,12,0,21.48,4.26,28,12.11a1.4,1.4,0,0,0,2.49-.89v-34a10.83,10.83,0,0,1,10.83-10.83h0A10.83,10.83,0,0,1,670.31,144.49ZM648.64,213c0-16-10.33-27.16-25.33-27.16-14.83,0-25.16,11.33-25.33,27.16.17,16,10.33,27.16,25.33,27.16S648.64,229,648.64,213Z"/><path class="cls-7" d="M773.71,220.32H716.29c2.83,12.66,12.5,20.33,25.5,20.33a33.4,33.4,0,0,0,18.46-5.43,8.63,8.63,0,0,1,11,1.14h0a8.51,8.51,0,0,1-1,12.8c-8.14,5.75-18.46,9-30.29,9-27.66,0-45.82-18.33-45.82-45.16,0-27.16,18.66-45.49,45.33-45.49,28.34,0,42.09,16.77,42.85,43.9A8.64,8.64,0,0,1,773.71,220.32Zm-11.26-14.5c-.5-13.16-9.33-21.5-22.83-21.5-12.83,0-21.83,8.33-23.83,21.5Z"/><path class="cls-7" d="M855.13,244.83a8.6,8.6,0,0,1-5,10.52,41.46,41.46,0,0,1-15.21,3c-14.5,0-26.16-8.33-26.16-26.66V189.29a1.63,1.63,0,0,0-1.63-1.63h-3a7.91,7.91,0,0,1-7.91-7.83h0a7.91,7.91,0,0,1,7.91-8h3a1.63,1.63,0,0,0,1.63-1.63V157.93a10.6,10.6,0,0,1,10.6-10.6h.31a10.59,10.59,0,0,1,10.59,10.59v12.28a1.63,1.63,0,0,0,1.63,1.63h15.95a7.91,7.91,0,0,1,7.91,7.91h0a7.91,7.91,0,0,1-7.91,7.91H831.9a1.63,1.63,0,0,0-1.63,1.63v38.53c0,8.5,3.5,11.33,9.33,11.33a19.69,19.69,0,0,0,4.94-.69A8.62,8.62,0,0,1,855,244.27Z"/><path class="cls-7" d="M930.41,178.93h0a9.7,9.7,0,0,1-8.12,9.69c-14,2-22.21,12-22.21,25.7v32.16a10.83,10.83,0,0,1-10.83,10.83h0a10.83,10.83,0,0,1-10.83-10.83V179a10.83,10.83,0,0,1,10.83-10.83h0A10.83,10.83,0,0,1,900.08,179v6.33a31.48,31.48,0,0,1,17.28-15.71A9.81,9.81,0,0,1,930.41,178.93Z"/><path class="cls-7" d="M972.23,142.66c0,7-4.83,12-11.66,12s-11.67-5-11.67-12,4.83-12,11.67-12S972.23,135.66,972.23,142.66ZM971.4,179v67.49a10.83,10.83,0,0,1-10.83,10.83h0a10.83,10.83,0,0,1-10.83-10.83V179a10.83,10.83,0,0,1,10.83-10.83h0A10.83,10.83,0,0,1,971.4,179Z"/><path class="cls-7" d="M1097,213.15c0,26.83-16.5,45-41.83,45-13.5,0-23.83-5.5-30.33-15.33v3.67a10.83,10.83,0,0,1-10.83,10.83h0a10.83,10.83,0,0,1-10.83-10.83v-102a10.83,10.83,0,0,1,10.83-10.83h0a10.83,10.83,0,0,1,10.83,10.83v38.32c6.33-9.83,16.66-15.33,30-15.33C1080,167.49,1097,185.82,1097,213.15Zm-22-.67c0-15.66-10.33-26.83-25-26.83-14.83,0-25.16,11.17-25.16,26.83,0,16,10.33,27,25.16,27C1064.71,239.48,1075,228.31,1075,212.48Z"/><path class="cls-7" d="M1190,220.32H1134c2.83,12.66,12.5,20.33,25.5,20.33a33.4,33.4,0,0,0,18.46-5.43,8.63,8.63,0,0,1,11,1.14h0a8.51,8.51,0,0,1-1,12.8c-8.14,5.75-18.46,9-30.29,9-27.66,0-45.83-18.33-45.83-45.16,0-27.16,18.66-45.49,45.33-45.49,27.82,0,41.58,16.17,42.8,42.43A10,10,0,0,1,1190,220.32Zm-9.78-14.5c-.5-13.16-9.33-21.5-22.83-21.5-12.83,0-21.83,8.33-23.83,21.5Z"/></g></g></g></svg>
